X:1
T:Title
%%score { ( 1 3 ) | ( 2 4 ) }
L:1/8
Q:1/4=81
M:6/8
K:D
V:1 treble nm="Grand Piano"
V:3 treble 
V:2 bass 
V:4 bass 
V:1
 F>=F^F [FA][EG][DF] | [DF]3 [CE]3 | [CE]>[DF][EG] [FA][=F^G][E=G] | F6 | F>=F^F [FA][EG][DF] | %5
w: J.~S.~Norris * * * * *|||||
 [DF]3 [CE]3 |[M:13/16] [CE]>[DF][EG][A,C][DF]3/2[CE] |[M:3/4] D6 | B>^A B[Bd] [=Ac][GB] | %9
w: ||||
 [GB]3 [FA]3 | ^G>F G[Gd] [EGc][DGB] | A3- [GA]3 | F=F ^F[FA]- [FA]/[=F^G]/[^FA] | B3 d3 | %14
w: |||||
 A^G =GC [DF][CE] | D6 |] %16
w: ||
V:2
 [D,A,D]>[D,A,D][D,A,D] [D,D][D,D][D,A,] | [A,,A,]3 [A,,A,]3 | %2
 [A,,A,]>[A,,A,][A,,A,] [A,,A,][A,,A,][A,,A,] | [D,A,D]6 | %4
 [D,A,D]>[D,A,D][D,A,D] [D,D][D,D][D,A,] | [A,,A,]3 [A,,A,]3 | %6
[M:13/16] [A,,A,]>[A,,A,][A,,A,][A,,E,][A,,A,]3/2[A,,G,] |[M:3/4] [D,F,]6 | %8
 [G,DG]>[G,DG] [G,DG][G,D] [G,D][K:bass][G,D] | [D,D]3 [D,D]3 | %10
 [E,B,D]>[E,B,D] [E,B,D][E,B,] E,E, | z2 z E3 | [D,A,D][D,A,D] [D,A,D][D,D]- [D,D]/[D,D]/[D,D] | %13
 [G,DG]3 [G,B,G]3 | [A,F][A,=F][K:bass] [A,E][A,,A,] [A,,A,][A,,G,] | [D,F,]6 |] %16
V:3
 x6 | x6 | x6 | x6 | x6 | x6 |[M:13/16] x13/2 |[M:3/4] x6 | x6 | x6 | x6 | C4 z2 | x6 | x6 | x6 | %15
 x6 |] %16
V:4
 x6 | x6 | x6 | x6 | x6 | x6 |[M:13/16] x13/2 |[M:3/4] x6 | x5[K:bass] x | x6 | x6 | A,,6 | x6 | %13
 x6 | x2[K:bass] x4 | x6 |] %16

